src/assets/Essentialplan.svg

<svg width="103" height="32" viewBox="0 0 103 32" fill="none" xmlns="http://www.w3.org/2000/svg">
<path d="M103 9L92.5 0C92.5 3.51472 92.5 5.48528 92.5 9H103Z" fill="#C40200"/>
<path d="M103 9H2C0.895432 9 0 9.89543 0 11V30C0 31.1046 0.895432 32 2 32H101C102.105 32 103 31.1046 103 30V9Z" fill="url(#paint0_linear_3589_6208)"/>
<path d="M14.5264 23.6396V25H9.24219V23.6396H14.5264ZM9.72754 15.0469V25H8.01172V15.0469H9.72754ZM13.8359 19.2031V20.543H9.24219V19.2031H13.8359ZM14.4922 15.0469V16.4141H9.24219V15.0469H14.4922ZM19.9131 22.9971C19.9131 22.833 19.8721 22.6849 19.79 22.5527C19.708 22.416 19.5508 22.293 19.3184 22.1836C19.0905 22.0742 18.7533 21.974 18.3066 21.8828C17.9147 21.7962 17.5547 21.6937 17.2266 21.5752C16.903 21.4521 16.625 21.304 16.3926 21.1309C16.1602 20.9577 15.9801 20.7526 15.8525 20.5156C15.7249 20.2786 15.6611 20.0052 15.6611 19.6953C15.6611 19.3945 15.7272 19.1097 15.8594 18.8408C15.9915 18.5719 16.1807 18.335 16.4268 18.1299C16.6729 17.9248 16.9714 17.763 17.3223 17.6445C17.6777 17.526 18.0742 17.4668 18.5117 17.4668C19.1315 17.4668 19.6624 17.5716 20.1045 17.7812C20.5511 17.9863 20.8929 18.2666 21.1299 18.6221C21.3669 18.973 21.4854 19.3695 21.4854 19.8115H19.8379C19.8379 19.6156 19.7878 19.4333 19.6875 19.2646C19.5918 19.0915 19.446 18.9525 19.25 18.8477C19.054 18.7383 18.8079 18.6836 18.5117 18.6836C18.2292 18.6836 17.9945 18.7292 17.8076 18.8203C17.6253 18.9069 17.4886 19.0208 17.3975 19.1621C17.3109 19.3034 17.2676 19.4583 17.2676 19.627C17.2676 19.75 17.2904 19.8617 17.3359 19.9619C17.3861 20.0576 17.4681 20.1465 17.582 20.2285C17.696 20.306 17.8509 20.3789 18.0469 20.4473C18.2474 20.5156 18.498 20.5817 18.7988 20.6455C19.3639 20.764 19.8493 20.9167 20.2549 21.1035C20.665 21.2858 20.9795 21.5228 21.1982 21.8145C21.417 22.1016 21.5264 22.4661 21.5264 22.9082C21.5264 23.2363 21.4557 23.5371 21.3145 23.8105C21.1777 24.0794 20.9772 24.3141 20.7129 24.5146C20.4486 24.7106 20.1318 24.8633 19.7627 24.9727C19.3981 25.082 18.988 25.1367 18.5322 25.1367C17.8623 25.1367 17.2949 25.0182 16.8301 24.7812C16.3652 24.5397 16.012 24.2321 15.7705 23.8584C15.5335 23.4801 15.415 23.0882 15.415 22.6826H17.0078C17.026 22.988 17.1104 23.2318 17.2607 23.4141C17.4157 23.5918 17.6071 23.7217 17.835 23.8037C18.0674 23.8812 18.3066 23.9199 18.5527 23.9199C18.849 23.9199 19.0973 23.8812 19.2979 23.8037C19.4984 23.7217 19.651 23.6123 19.7559 23.4756C19.8607 23.3343 19.9131 23.1748 19.9131 22.9971ZM27.1182 22.9971C27.1182 22.833 27.0771 22.6849 26.9951 22.5527C26.9131 22.416 26.7559 22.293 26.5234 22.1836C26.2956 22.0742 25.9583 21.974 25.5117 21.8828C25.1198 21.7962 24.7598 21.6937 24.4316 21.5752C24.1081 21.4521 23.8301 21.304 23.5977 21.1309C23.3652 20.9577 23.1852 20.7526 23.0576 20.5156C22.93 20.2786 22.8662 20.0052 22.8662 19.6953C22.8662 19.3945 22.9323 19.1097 23.0645 18.8408C23.1966 18.5719 23.3857 18.335 23.6318 18.1299C23.8779 17.9248 24.1764 17.763 24.5273 17.6445C24.8828 17.526 25.2793 17.4668 25.7168 17.4668C26.3366 17.4668 26.8675 17.5716 27.3096 17.7812C27.7562 17.9863 28.098 18.2666 28.335 18.6221C28.5719 18.973 28.6904 19.3695 28.6904 19.8115H27.043C27.043 19.6156 26.9928 19.4333 26.8926 19.2646C26.7969 19.0915 26.651 18.9525 26.4551 18.8477C26.2591 18.7383 26.013 18.6836 25.7168 18.6836C25.4342 18.6836 25.1995 18.7292 25.0127 18.8203C24.8304 18.9069 24.6937 19.0208 24.6025 19.1621C24.516 19.3034 24.4727 19.4583 24.4727 19.627C24.4727 19.75 24.4954 19.8617 24.541 19.9619C24.5911 20.0576 24.6732 20.1465 24.7871 20.2285C24.901 20.306 25.056 20.3789 25.252 20.4473C25.4525 20.5156 25.7031 20.5817 26.0039 20.6455C26.569 20.764 27.0544 20.9167 27.46 21.1035C27.8701 21.2858 28.1846 21.5228 28.4033 21.8145C28.6221 22.1016 28.7314 22.4661 28.7314 22.9082C28.7314 23.2363 28.6608 23.5371 28.5195 23.8105C28.3828 24.0794 28.1823 24.3141 27.918 24.5146C27.6536 24.7106 27.3369 24.8633 26.9678 24.9727C26.6032 25.082 26.193 25.1367 25.7373 25.1367C25.0674 25.1367 24.5 25.0182 24.0352 24.7812C23.5703 24.5397 23.2171 24.2321 22.9756 23.8584C22.7386 23.4801 22.6201 23.0882 22.6201 22.6826H24.2129C24.2311 22.988 24.3154 23.2318 24.4658 23.4141C24.6208 23.5918 24.8122 23.7217 25.04 23.8037C25.2725 23.8812 25.5117 23.9199 25.7578 23.9199C26.054 23.9199 26.3024 23.8812 26.5029 23.8037C26.7035 23.7217 26.8561 23.6123 26.9609 23.4756C27.0658 23.3343 27.1182 23.1748 27.1182 22.9971ZM33.4346 25.1367C32.8877 25.1367 32.3932 25.0479 31.9512 24.8701C31.5137 24.6878 31.14 24.4349 30.8301 24.1113C30.5247 23.7878 30.29 23.4072 30.126 22.9697C29.9619 22.5322 29.8799 22.0605 29.8799 21.5547V21.2812C29.8799 20.7025 29.9642 20.1784 30.1328 19.709C30.3014 19.2396 30.5361 18.8385 30.8369 18.5059C31.1377 18.1686 31.4932 17.9111 31.9033 17.7334C32.3135 17.5557 32.7578 17.4668 33.2363 17.4668C33.765 17.4668 34.2275 17.5557 34.624 17.7334C35.0205 17.9111 35.3486 18.1618 35.6084 18.4854C35.8727 18.8044 36.0687 19.1849 36.1963 19.627C36.3285 20.069 36.3945 20.5566 36.3945 21.0898V21.7939H30.6797V20.6113H34.7676V20.4814C34.7585 20.1852 34.6992 19.9072 34.5898 19.6475C34.485 19.3877 34.3232 19.1781 34.1045 19.0186C33.8857 18.859 33.5941 18.7793 33.2295 18.7793C32.9561 18.7793 32.7122 18.8385 32.498 18.957C32.2884 19.071 32.113 19.2373 31.9717 19.4561C31.8304 19.6748 31.721 19.9391 31.6436 20.249C31.5706 20.5544 31.5342 20.8984 31.5342 21.2812V21.5547C31.5342 21.8783 31.5775 22.179 31.6641 22.457C31.7552 22.7305 31.8874 22.9697 32.0605 23.1748C32.2337 23.3799 32.4434 23.5417 32.6895 23.6602C32.9355 23.7741 33.2158 23.8311 33.5303 23.8311C33.9268 23.8311 34.2799 23.7513 34.5898 23.5918C34.8997 23.4323 35.1686 23.2067 35.3965 22.915L36.2646 23.7559C36.1051 23.9883 35.8978 24.2116 35.6426 24.4258C35.3874 24.6354 35.0752 24.8063 34.7061 24.9385C34.3415 25.0706 33.9176 25.1367 33.4346 25.1367ZM39.3135 19.1826V25H37.666V17.6035H39.2178L39.3135 19.1826ZM39.0195 21.0283L38.4863 21.0215C38.4909 20.4974 38.5638 20.0166 38.7051 19.5791C38.8509 19.1416 39.0514 18.7656 39.3066 18.4512C39.5664 18.1367 39.8763 17.8952 40.2363 17.7266C40.5964 17.5534 40.9974 17.4668 41.4395 17.4668C41.7949 17.4668 42.1162 17.5169 42.4033 17.6172C42.695 17.7129 42.9434 17.8701 43.1484 18.0889C43.3581 18.3076 43.5176 18.5924 43.627 18.9434C43.7363 19.2897 43.791 19.7158 43.791 20.2217V25H42.1367V20.2148C42.1367 19.8594 42.0843 19.5791 41.9795 19.374C41.8792 19.1644 41.7311 19.0163 41.5352 18.9297C41.3438 18.8385 41.1045 18.793 40.8174 18.793C40.5348 18.793 40.2819 18.8522 40.0586 18.9707C39.8353 19.0892 39.6462 19.251 39.4912 19.4561C39.3408 19.6611 39.2246 19.8981 39.1426 20.167C39.0605 20.4359 39.0195 20.723 39.0195 21.0283ZM48.8633 17.6035V18.8066H44.6934V17.6035H48.8633ZM45.8965 15.792H47.5439V22.9561C47.5439 23.1839 47.5758 23.3594 47.6396 23.4824C47.708 23.6009 47.8014 23.6807 47.9199 23.7217C48.0384 23.7627 48.1774 23.7832 48.3369 23.7832C48.4508 23.7832 48.5602 23.7764 48.665 23.7627C48.7699 23.749 48.8542 23.7354 48.918 23.7217L48.9248 24.9795C48.7881 25.0205 48.6286 25.057 48.4463 25.0889C48.2686 25.1208 48.0635 25.1367 47.8311 25.1367C47.4528 25.1367 47.1178 25.0706 46.8262 24.9385C46.5345 24.8018 46.3066 24.5807 46.1426 24.2754C45.9785 23.9701 45.8965 23.5645 45.8965 23.0586V15.792ZM51.8984 17.6035V25H50.2441V17.6035H51.8984ZM50.1348 15.6621C50.1348 15.4115 50.2168 15.2041 50.3809 15.04C50.5495 14.8714 50.7819 14.7871 51.0781 14.7871C51.3698 14.7871 51.5999 14.8714 51.7686 15.04C51.9372 15.2041 52.0215 15.4115 52.0215 15.6621C52.0215 15.9082 51.9372 16.1133 51.7686 16.2773C51.5999 16.4414 51.3698 16.5234 51.0781 16.5234C50.7819 16.5234 50.5495 16.4414 50.3809 16.2773C50.2168 16.1133 50.1348 15.9082 50.1348 15.6621ZM57.873 23.5166V19.9893C57.873 19.7249 57.8252 19.4971 57.7295 19.3057C57.6338 19.1143 57.488 18.9661 57.292 18.8613C57.1006 18.7565 56.859 18.7041 56.5674 18.7041C56.2985 18.7041 56.0661 18.7497 55.8701 18.8408C55.6742 18.932 55.5215 19.055 55.4121 19.21C55.3027 19.3649 55.248 19.5404 55.248 19.7363H53.6074C53.6074 19.4447 53.6781 19.1621 53.8193 18.8887C53.9606 18.6152 54.1657 18.3714 54.4346 18.1572C54.7035 17.943 55.0247 17.7744 55.3984 17.6514C55.7721 17.5283 56.1914 17.4668 56.6562 17.4668C57.2122 17.4668 57.7044 17.5602 58.1328 17.7471C58.5658 17.9339 58.9053 18.2165 59.1514 18.5947C59.402 18.9684 59.5273 19.4378 59.5273 20.0029V23.291C59.5273 23.6283 59.5501 23.9313 59.5957 24.2002C59.6458 24.4645 59.7165 24.6947 59.8076 24.8906V25H58.1191C58.0417 24.8223 57.9801 24.5967 57.9346 24.3232C57.8936 24.0452 57.873 23.7764 57.873 23.5166ZM58.1123 20.502L58.126 21.5205H56.9434C56.638 21.5205 56.3691 21.5501 56.1367 21.6094C55.9043 21.6641 55.7106 21.7461 55.5557 21.8555C55.4007 21.9648 55.2845 22.097 55.207 22.252C55.1296 22.4069 55.0908 22.5824 55.0908 22.7783C55.0908 22.9743 55.1364 23.1543 55.2275 23.3184C55.3187 23.4779 55.4508 23.6032 55.624 23.6943C55.8018 23.7855 56.016 23.8311 56.2666 23.8311C56.6038 23.8311 56.8978 23.7627 57.1484 23.626C57.4036 23.4847 57.6042 23.3138 57.75 23.1133C57.8958 22.9082 57.9733 22.7145 57.9824 22.5322L58.5156 23.2637C58.4609 23.4505 58.3675 23.651 58.2354 23.8652C58.1032 24.0794 57.93 24.2845 57.7158 24.4805C57.5062 24.6719 57.2533 24.8291 56.957 24.9521C56.6654 25.0752 56.3281 25.1367 55.9453 25.1367C55.4622 25.1367 55.0316 25.041 54.6533 24.8496C54.2751 24.6536 53.9788 24.3916 53.7646 24.0635C53.5505 23.7308 53.4434 23.3548 53.4434 22.9355C53.4434 22.5436 53.5163 22.1973 53.6621 21.8965C53.8125 21.5911 54.0312 21.3359 54.3184 21.1309C54.61 20.9258 54.9655 20.7708 55.3848 20.666C55.804 20.5566 56.2826 20.502 56.8203 20.502H58.1123ZM63.0137 14.5V25H61.3594V14.5H63.0137ZM72.249 21.2881H69.6582V19.9277H72.249C72.7002 19.9277 73.0648 19.8548 73.3428 19.709C73.6208 19.5632 73.8236 19.3626 73.9512 19.1074C74.0833 18.8477 74.1494 18.5514 74.1494 18.2188C74.1494 17.9043 74.0833 17.6104 73.9512 17.3369C73.8236 17.0589 73.6208 16.8356 73.3428 16.667C73.0648 16.4984 72.7002 16.4141 72.249 16.4141H70.1846V25H68.4688V15.0469H72.249C73.0192 15.0469 73.6732 15.1836 74.2109 15.457C74.7533 15.7259 75.1657 16.0996 75.4482 16.5781C75.7308 17.0521 75.8721 17.5944 75.8721 18.2051C75.8721 18.8477 75.7308 19.3991 75.4482 19.8594C75.1657 20.3197 74.7533 20.6729 74.2109 20.9189C73.6732 21.165 73.0192 21.2881 72.249 21.2881ZM79.0098 14.5V25H77.3555V14.5H79.0098ZM84.9844 23.5166V19.9893C84.9844 19.7249 84.9365 19.4971 84.8408 19.3057C84.7451 19.1143 84.5993 18.9661 84.4033 18.8613C84.2119 18.7565 83.9704 18.7041 83.6787 18.7041C83.4098 18.7041 83.1774 18.7497 82.9814 18.8408C82.7855 18.932 82.6328 19.055 82.5234 19.21C82.4141 19.3649 82.3594 19.5404 82.3594 19.7363H80.7188C80.7188 19.4447 80.7894 19.1621 80.9307 18.8887C81.0719 18.6152 81.277 18.3714 81.5459 18.1572C81.8148 17.943 82.1361 17.7744 82.5098 17.6514C82.8835 17.5283 83.3027 17.4668 83.7676 17.4668C84.3236 17.4668 84.8158 17.5602 85.2441 17.7471C85.6771 17.9339 86.0166 18.2165 86.2627 18.5947C86.5133 18.9684 86.6387 19.4378 86.6387 20.0029V23.291C86.6387 23.6283 86.6615 23.9313 86.707 24.2002C86.7572 24.4645 86.8278 24.6947 86.9189 24.8906V25H85.2305C85.153 24.8223 85.0915 24.5967 85.0459 24.3232C85.0049 24.0452 84.9844 23.7764 84.9844 23.5166ZM85.2236 20.502L85.2373 21.5205H84.0547C83.7493 21.5205 83.4805 21.5501 83.248 21.6094C83.0156 21.6641 82.8219 21.7461 82.667 21.8555C82.512 21.9648 82.3958 22.097 82.3184 22.252C82.2409 22.4069 82.2021 22.5824 82.2021 22.7783C82.2021 22.9743 82.2477 23.1543 82.3389 23.3184C82.43 23.4779 82.5622 23.6032 82.7354 23.6943C82.9131 23.7855 83.1273 23.8311 83.3779 23.8311C83.7152 23.8311 84.0091 23.7627 84.2598 23.626C84.515 23.4847 84.7155 23.3138 84.8613 23.1133C85.0072 22.9082 85.0846 22.7145 85.0938 22.5322L85.627 23.2637C85.5723 23.4505 85.4788 23.651 85.3467 23.8652C85.2145 24.0794 85.0413 24.2845 84.8271 24.4805C84.6175 24.6719 84.3646 24.8291 84.0684 24.9521C83.7767 25.0752 83.4395 25.1367 83.0566 25.1367C82.5736 25.1367 82.1429 25.041 81.7646 24.8496C81.3864 24.6536 81.0902 24.3916 80.876 24.0635C80.6618 23.7308 80.5547 23.3548 80.5547 22.9355C80.5547 22.5436 80.6276 22.1973 80.7734 21.8965C80.9238 21.5911 81.1426 21.3359 81.4297 21.1309C81.7214 20.9258 82.0768 20.7708 82.4961 20.666C82.9154 20.5566 83.3939 20.502 83.9316 20.502H85.2236ZM89.9951 19.1826V25H88.3477V17.6035H89.8994L89.9951 19.1826ZM89.7012 21.0283L89.168 21.0215C89.1725 20.4974 89.2454 20.0166 89.3867 19.5791C89.5326 19.1416 89.7331 18.7656 89.9883 18.4512C90.248 18.1367 90.5579 17.8952 90.918 17.7266C91.278 17.5534 91.679 17.4668 92.1211 17.4668C92.4766 17.4668 92.7979 17.5169 93.085 17.6172C93.3766 17.7129 93.625 17.8701 93.8301 18.0889C94.0397 18.3076 94.1992 18.5924 94.3086 18.9434C94.418 19.2897 94.4727 19.7158 94.4727 20.2217V25H92.8184V20.2148C92.8184 19.8594 92.766 19.5791 92.6611 19.374C92.5609 19.1644 92.4128 19.0163 92.2168 18.9297C92.0254 18.8385 91.7861 18.793 91.499 18.793C91.2165 18.793 90.9635 18.8522 90.7402 18.9707C90.5169 19.0892 90.3278 19.251 90.1729 19.4561C90.0225 19.6611 89.9062 19.8981 89.8242 20.167C89.7422 20.4359 89.7012 20.723 89.7012 21.0283Z" fill="white"/>
<defs>
<linearGradient id="paint0_linear_3589_6208" x1="103" y1="20.5" x2="0" y2="20.5" gradientUnits="userSpaceOnUse">
<stop stop-color="#FB0200"/>
<stop offset="1" stop-color="#4184ED"/>
</linearGradient>
</defs>
</svg>

<svg xmlns="http://www.w3.org/2000/svg" width="103" height="32" fill="none" viewBox="0 0 103 32"><path fill="#c40200" d="M103 9 92.5 0v9z"/><path fill="url(#a)" d="M103 9H2a2 2 0 0 0-2 2v19a2 2 0 0 0 2 2h99a2 2 0 0 0 2-2z"/><path fill="#fff" d="M14.526 23.64V25H9.242v-1.36zm-4.798-8.593V25H8.012v-9.953zm4.108 4.156v1.34H9.242v-1.34zm.656-4.156v1.367h-5.25v-1.367zm5.421 7.95a.83.83 0 0 0-.123-.444q-.123-.205-.472-.37-.342-.164-1.011-.3a9 9 0 0 1-1.08-.308 3.4 3.4 0 0 1-.834-.444 1.9 1.9 0 0 1-.54-.615 1.7 1.7 0 0 1-.192-.82q0-.452.198-.855.2-.404.568-.711.369-.308.895-.485a3.8 3.8 0 0 1 1.19-.178q.93 0 1.593.314.67.308 1.025.841.355.526.355 1.19h-1.647q0-.295-.15-.547a1.05 1.05 0 0 0-.438-.417q-.294-.165-.738-.164-.425 0-.704.136a.96.96 0 0 0-.41.342.87.87 0 0 0-.062.8.8.8 0 0 0 .246.267q.171.116.465.218.3.103.752.198.847.178 1.456.459.615.273.943.71.328.432.328 1.094 0 .493-.212.902a2.05 2.05 0 0 1-.601.705 3 3 0 0 1-.95.458 4.3 4.3 0 0 1-1.23.164q-1.005 0-1.703-.356-.697-.362-1.06-.923a2.2 2.2 0 0 1-.355-1.175h1.593q.027.458.253.731.232.267.574.39.349.116.718.116.444 0 .745-.116.3-.123.458-.328a.8.8 0 0 0 .157-.479m7.205 0a.83.83 0 0 0-.123-.444q-.123-.205-.472-.37-.341-.164-1.011-.3a9 9 0 0 1-1.08-.308 3.4 3.4 0 0 1-.834-.444 1.9 1.9 0 0 1-.54-.615 1.7 1.7 0 0 1-.192-.82q0-.452.198-.855.2-.404.568-.711.369-.308.895-.485a3.8 3.8 0 0 1 1.19-.178q.93 0 1.593.314.67.308 1.025.841.355.526.355 1.19h-1.647q0-.295-.15-.547a1.05 1.05 0 0 0-.438-.417q-.294-.165-.738-.164-.424 0-.704.136a.96.96 0 0 0-.41.342.87.87 0 0 0-.062.8q.075.143.246.267.171.116.465.218.3.103.752.198.847.178 1.456.459.615.273.943.71.329.432.328 1.094 0 .493-.212.902a2.05 2.05 0 0 1-.601.705 3 3 0 0 1-.95.458 4.3 4.3 0 0 1-1.23.164q-1.005 0-1.703-.356-.697-.362-1.06-.923a2.2 2.2 0 0 1-.355-1.175h1.593q.027.458.253.731.232.267.574.39.35.116.718.116.444 0 .745-.116.3-.123.458-.328a.8.8 0 0 0 .157-.479m6.317 2.14a3.9 3.9 0 0 1-1.484-.267 3.3 3.3 0 0 1-1.12-.759 3.4 3.4 0 0 1-.705-1.141 4 4 0 0 1-.246-1.415v-.274q0-.868.253-1.572.252-.704.704-1.203.45-.506 1.066-.773.615-.266 1.333-.266.794 0 1.388.266.595.267.984.752.397.48.588 1.142.2.663.199 1.463v.704H30.68V20.61h4.088v-.13a2.3 2.3 0 0 0-.178-.834 1.4 1.4 0 0 0-.486-.628q-.328-.24-.874-.24-.411 0-.732.178-.315.17-.526.5-.213.327-.328.792-.11.458-.11 1.032v.274q0 .485.13.902.137.41.396.718.26.308.63.485.368.171.84.171.595 0 1.06-.24.465-.238.806-.676l.869.84q-.24.35-.622.67-.384.315-.937.514a3.7 3.7 0 0 1-1.271.198m5.878-5.954V25h-1.647v-7.396h1.552zm-.294 1.845-.533-.006a4.8 4.8 0 0 1 .22-1.443q.218-.655.6-1.128.39-.471.93-.724a2.74 2.74 0 0 1 1.204-.26q.532 0 .963.15.438.144.745.472.315.328.479.854.165.52.164 1.279V25h-1.654v-4.785q0-.534-.157-.841a.88.88 0 0 0-.445-.444q-.286-.137-.718-.137-.423 0-.758.178-.336.177-.568.485-.225.307-.348.711a3 3 0 0 0-.123.861m9.844-3.424v1.203h-4.17v-1.203zm-2.966-1.812h1.647v7.164q0 .342.096.526a.5.5 0 0 0 .28.24q.177.06.417.061.17 0 .328-.02.158-.021.253-.041l.007 1.258a4 4 0 0 1-.479.109 3.5 3.5 0 0 1-.615.048q-.567 0-1.005-.198a1.48 1.48 0 0 1-.683-.664q-.247-.457-.246-1.216zm6.001 1.812V25h-1.654v-7.396zm-1.763-1.942q0-.376.246-.622.252-.253.697-.253.438 0 .69.253a.83.83 0 0 1 .254.622.82.82 0 0 1-.253.615q-.255.246-.69.246-.446 0-.698-.246a.83.83 0 0 1-.246-.615m7.738 7.855v-3.528q0-.396-.143-.683a1 1 0 0 0-.438-.445q-.287-.157-.725-.157-.402 0-.697.137a1.13 1.13 0 0 0-.458.369.9.9 0 0 0-.164.526h-1.64q0-.437.211-.847.213-.411.616-.732t.963-.506a4 4 0 0 1 1.258-.184q.834 0 1.477.28.65.28 1.018.848.376.56.376 1.408v3.288q0 .505.069.91.074.396.212.69V25h-1.689a3 3 0 0 1-.184-.677 5.5 5.5 0 0 1-.062-.806m.24-3.015.013 1.018h-1.183q-.458 0-.806.09a1.7 1.7 0 0 0-.581.245q-.232.165-.349.397t-.116.526.136.54q.138.24.397.376.267.137.643.137.505 0 .881-.205.384-.211.602-.513.219-.307.232-.58l.534.73a2.5 2.5 0 0 1-.28.602q-.2.322-.52.616-.315.286-.759.471a2.6 2.6 0 0 1-1.012.185q-.724 0-1.292-.287a2.3 2.3 0 0 1-.888-.787 2.04 2.04 0 0 1-.322-1.127q0-.588.22-1.04.225-.457.655-.765.438-.307 1.067-.465.629-.164 1.435-.164zm4.9-6.002V25H61.36V14.5zm9.236 6.788h-2.59v-1.36h2.59q.677 0 1.094-.219t.608-.602q.198-.39.198-.888 0-.473-.198-.882a1.5 1.5 0 0 0-.608-.67q-.417-.253-1.094-.253h-2.064V25h-1.716v-9.953h3.78q1.155 0 1.962.41.814.404 1.237 1.121.424.71.424 1.627 0 .964-.424 1.654-.423.69-1.237 1.06-.807.37-1.962.37m6.76-6.788V25h-1.653V14.5zm5.975 9.017v-3.528q0-.396-.143-.683a1 1 0 0 0-.438-.445q-.287-.157-.724-.157-.404 0-.698.137a1.13 1.13 0 0 0-.458.369.9.9 0 0 0-.164.526h-1.64q0-.437.212-.847.21-.411.615-.732.403-.321.964-.506a4 4 0 0 1 1.258-.184q.834 0 1.476.28.65.28 1.019.848.376.56.376 1.408v3.288q0 .505.068.91.075.396.212.69V25H85.23a3 3 0 0 1-.185-.677 5.5 5.5 0 0 1-.062-.806m.24-3.015.013 1.018h-1.182q-.459 0-.807.09a1.7 1.7 0 0 0-.581.245 1.07 1.07 0 0 0-.465.923q0 .294.137.54.137.24.396.376.267.137.643.137.505 0 .882-.205.383-.211.601-.513.22-.307.233-.58l.533.73a2.5 2.5 0 0 1-.28.602q-.199.322-.52.616a2.585 2.585 0 0 1-1.77.656q-.725 0-1.292-.287a2.3 2.3 0 0 1-.889-.787 2.04 2.04 0 0 1-.321-1.127q0-.588.218-1.04.226-.457.657-.765.437-.307 1.066-.465.63-.164 1.436-.164zm4.771-1.32V25h-1.647v-7.396h1.551zm-.294 1.846-.533-.006a4.8 4.8 0 0 1 .219-1.443q.219-.655.601-1.128.39-.471.93-.724.54-.26 1.203-.26.534 0 .964.15.438.144.745.472.315.328.479.854.164.52.164 1.279V25h-1.655v-4.785q0-.534-.157-.841a.88.88 0 0 0-.444-.444q-.287-.137-.718-.137-.423 0-.759.178-.335.177-.567.485-.225.307-.349.711a3 3 0 0 0-.123.861"/><defs><linearGradient id="a" x1="103" x2="0" y1="20.5" y2="20.5" gradientUnits="userSpaceOnUse"><stop stop-color="#fb0200"/><stop offset="1" stop-color="#4184ed"/></linearGradient></defs></svg>
